X:1
T:Title
%%score { ( 1 3 4 ) | ( 2 5 ) }
L:1/8
M:3/4
K:C
V:1 treble nm="Grand Piano"
V:3 treble 
V:4 treble 
V:2 bass 
V:5 bass 
V:1
 z6[Q:1/4=132] | [_Ec]4 z2 | _E2 C2 E2 | D6 | G4 G2 | [_Ec]4 z2 | F2 _E2 F2 | G6- | G4 z2 | %9
 ^G4 z2 | F2 z2 z2 | z2 z2 F2 | _E2 G,4 | G2 G2 z2 | D2 G,4 | [C_E]4 z2 | C4 z2 | z2 z2 _e2 | %18
 d2 c2 B2 | c6- | c4 z2 | z2 z2 _E2 | D2 C2[K:bass] B,2 | C6- |[M:2/4] C4 |[M:1/4] z2 | %26
[M:3/4][K:treble] z2 z2 G2 | ^G2 =G2 F2 | [C_E]6 | C4 z2 | z2 z2 G2 | F2 _E2 F2 | [DG]6- | %33
 [DG]4 z2 | G4 z2 | ^G2 =G2 F2 | [C_E]6 | z2 z2 _B2 | [G_B]4 z2 | z2 z2 c2 | [_EG]6- | [EG]4 z2 | %42
 [D_B]4 z2 | [G_B]4 z2 | [F^G]4 z2 | [_EG]4 z2 | [_EG]2 F2 E2 | D2 C2[K:bass] B,2 | C6- | C4 z2 | %50
 c4 z2 | _e2 d2 c2 | F6 | z2 z2 G2 | c4 z2 | d2 z2 z2 | ^G4 z2 | z2 z2 F2 | ^G2 =G2 F2 | %59
 _E2 z2 E2 | G2 F2 _E2 | D2 G,4 | [_Ec]2 d2 z2 | [Bd]2 [Gc]2 B2 | c6- | c4 z2 |[M:1/4] z2 | %67
[M:3/4] [_Ec]4 z2 | _E2 C2 E2 | D6 | G4 G2 | [_Ec]4 z2 | F2 _E2 F2 | G6- | G4 z2 | ^G4 z2 | %76
 F2 z2 z2 | z2 z2 F2 | _E2 G,4 | G2 G2 z2 | D2 G,4 | [C_E]4 z2 | C4 z2 | z2 z2 _e2 | d2 c2 B2 | %85
 c6- | c4 z2 | z2 z2 _E2 | D2 C2[K:bass] B,2 | C6- |[M:6/4] C4 z2 z6 |] %91
V:2
 z2 z2 G2 | C,2 z2 _E2 | C,2 [_E,G,]4 | B,2- [D,F,B,-]2 [D,F,B,]2 | B,4 D2 | C,2 z2 _E2 | %6
 C,2 [_E,G,]4 | B,,2 [F,G,]2 [F,G,]2 | z2 z2 D2 | C,2 z2 G2 | C,2 z2 F2 | C,2 z2 D2 | C,2 z2 _E2 | %13
 B,,2 z2 F2 | B,,2 z2 D2 | C,2 _E,2 [F,G,B,]2 | C,2 z2 G2 | C,2 z2 G2 | B,,2 z2 G2 | %19
 C,2 [_E,G,_E]2 [E,G,E]2 | _E4 z2 | C,2 _E,4 | [B,,B,]2 [F,G,]4 | C,2 _E,2 E,2 |[M:2/4] _E,4 | %25
[M:1/4] C2 |[M:3/4] C,2 z2 _E2 | C2- [F,^G,C]4 | C,2 _E,2 E,2 | C,2 z2 C2 | C,2 z2 _E2 | %31
 C2- [F,^G,C]4 | B,,2 F,2 F,2 | B,,4 C2 | C,2 _E,4 | C2- [F,^G,C]4 | C,2 _E,2 E,2 | D,2 z2 G2 | %38
 D,2 z2 A2 | D,2 z2 G2 | C,2 _E,2 E,2 | z2 z2[K:treble] _B2 | D,2 z2 A2 | D,2 z2[K:treble] c2 | %44
 C,2 z2[K:treble] _B2 | C,2 _E,2 F,2 | C,2 [_E,G,]4 | B,,2 [F,G,]4 | C,2 _E,2 E,2 | z2 z2 G2 | %50
 C,2 z2[K:treble] d2 | C,2 [_E,G,]4 | C,2 z2 ^G2 | C,2 z2 _E2 | C,2 z2[K:treble] _e2 | %55
 C,2 [F,^G,]4 | C,2 z2[K:treble] _B2 | C,2 _E,4 | C2- [F,^G,C]4 | [C,C]2 z2 C2 | C6 | %61
 [B,,B,]2 z2 G2 | C,2 z2[K:treble] _e2 | B,,2 z2 G2 | C,2 _E,2 E,2 | C,4 z2 |[M:1/4] G2 | %67
[M:3/4] C,2 z2 _E2 | C,2 [_E,G,]4 | B,2- [D,F,B,-]2 [D,F,B,]2 | B,4 D2 | C,2 z2 _E2 | %72
 C,2 [_E,G,]4 | B,,2 [F,G,]2 [F,G,]2 | z2 z2 D2 | C,2 z2 G2 | C,2 z2 F2 | C,2 z2 D2 | C,2 z2 _E2 | %79
 B,,2 z2 F2 | B,,2 z2 D2 | C,2 _E,2 [F,G,B,]2 | C,2 z2 G2 | C,2 z2 G2 | B,,2 z2 G2 | %85
 C,2 [_E,G,_E]2 [E,G,E]2 | _E4 z2 | C,2 _E,4 | [B,,B,]2 [F,G,]4 | C,2 _E,2 E,2 |[M:6/4] ._E,6 z6 |] %91
V:3
 x6 | z2 z2 G2 | x6 | z2 G,2 G,2 | x6 | z2 z2 G2 | x6 | z2 B,2 C2 | D4 G2 | C2- [^G,C]4 | %10
 C2- [^G,C]4 | [CG]4 z2 | x6 | D2- [G,D]4 | x6 | z2 G,2 D2 | z2 G,4 | [_Ec]4 z2 | F4 z2 | %19
 z2 G2 G2 | G4 C2 | C4 z2 | x4[K:bass] x2 | z2 G,2 G,2 |[M:2/4] G,4 |[M:1/4] x2 | %26
[M:3/4][K:treble] [_EG]4 z2 | x6 | z2 G,2 G,2 | z2 G,4 | [_EG]4 z2 | x6 | z2 G,2 G,2 | [F,G,]4 z2 | %34
 C4- [CF]2 | x6 | z2 G,2 G,2 | D4 z2 | z2 _B,4 | [G_B]4 z2 | z2 G,2 G,2 | [_E,G,]6 | z2 _B,4 | %43
 z2 _B,4 | z2 ^G,4 | z2 G,2 [^G,C^G]2 | x6 | x4[K:bass] x2 | z2 G,2 G,2 | [_E,G,]6 | G2- [G,G]4 | %51
 G6 | _B2- [^G,-B]2 G,2 | [_EG]4 z2 | G2- [G,G]4 | F2- [F-c]2 [F_B]2 | F2- [^G,F]4 | [_EG]4 z2 | %58
 x6 | z2 G,4 | x6 | x6 | z2 G4 | x6 | z2 G,2 G,2 | [_E,G,]4 z2 |[M:1/4] x2 |[M:3/4] z2 z2 G2 | x6 | %69
 z2 G,2 G,2 | x6 | z2 z2 G2 | x6 | z2 B,2 C2 | D4 G2 | C2- [^G,C]4 | C2- [^G,C]4 | [CG]4 z2 | x6 | %79
 D2- [G,D]4 | x6 | z2 G,2 D2 | z2 G,4 | [_Ec]4 z2 | F4 z2 | z2 G2 G2 | G4 C2 | C4 z2 | %88
 x4[K:bass] x2 | z2 G,2 G,2 |[M:6/4] .G,6 z6 |] %91
V:4
 x6 | z2 G,4 | x6 | x6 | x6 | z2 G,4 | x6 | x6 | x6 | x6 | x6 | z2 G,4 | x6 | x6 | x6 | x6 | x6 | %17
 z2 G,4 | x6 | x6 | x6 | z2 G,4 | x4[K:bass] x2 | x6 |[M:2/4] x4 |[M:1/4] x2 | %26
[M:3/4][K:treble] z2 G,4 | x6 | x6 | x6 | z2 G,4 | x6 | x6 | x6 | z2 G,4 | x6 | x6 | z2 _B,4 | x6 | %39
 z2 _B,4 | x6 | x6 | x6 | x6 | x6 | x6 | x6 | x4[K:bass] x2 | x6 | x6 | x6 | x6 | x6 | z2 G,4 | %54
 x6 | x6 | x6 | z2 G,4 | x6 | x6 | x6 | x6 | x6 | x6 | x6 | x6 |[M:1/4] x2 |[M:3/4] z2 G,4 | x6 | %69
 x6 | x6 | z2 G,4 | x6 | x6 | x6 | x6 | x6 | z2 G,4 | x6 | x6 | x6 | x6 | x6 | z2 G,4 | x6 | x6 | %86
 x6 | z2 G,4 | x4[K:bass] x2 | x6 |[M:6/4] x12 |] %91
V:5
 x6 | z2 _E,4 | x6 | B,,2 z2 z2 | [D,F,G,]6 | z2 _E,4 | x6 | x6 | [B,,F,G,]6 | z2 F,4 | z2 F,4 | %11
 z2 _E,4 | z2 _E,4 | z2 F,4 | z2 F,4 | x6 | z2 _E,4 | z2 _E,4 | z2 [F,G,]4 | x6 | [_E,G,]6 | x6 | %22
 x6 | x6 |[M:2/4] x4 |[M:1/4] x2 |[M:3/4] z2 _E,4 | C,2 z2 z2 | x6 | z2 _E,4 | z2 _E,4 | %31
 C,2 z2 z2 | x6 | x6 | x6 | C,2 z2 z2 | x6 | z2 G,4 | z2 G,4 | z2 G,4 | x6 | C,6[K:treble] | %42
 z2 G,4 | z2 G,4[K:treble] | z2 F,4[K:treble] | x6 | x6 | x6 | x6 | C,6 | z2 _E,4[K:treble] | x6 | %52
 z2 F,4 | z2 _E,4 | z2 _E,4[K:treble] | x6 | z2 F,4[K:treble] | x6 | C,2 z2 z2 | z2 _E,4 | %60
 C,2 z2 z2 | z2 _E,4 | z2 [F,G,]4[K:treble] | z2 [_E,G,]4 | x6 | x6 |[M:1/4] x2 |[M:3/4] z2 _E,4 | %68
 x6 | B,,2 z2 z2 | [D,F,G,]6 | z2 _E,4 | x6 | x6 | [B,,F,G,]6 | z2 F,4 | z2 F,4 | z2 _E,4 | %78
 z2 _E,4 | z2 F,4 | z2 F,4 | x6 | z2 _E,4 | z2 _E,4 | z2 [F,G,]4 | x6 | [_E,G,]6 | x6 | x6 | x6 | %90
[M:6/4] x12 |] %91

